X: 106
T: POLKA: Toureendarby
T: Curragh Races
C: C: Trad.; S: Timmy O'Connor; Laoise Kelly
C: Set Leaders: Tania, Anton
Z: Anton Zille ed. arr., Oleg Naumov arr.; Weejie at The Session
N: https://www.soundslice.com/slices/CLHRc/
N: https://thesession.org/members/26966/sets/89997
R: Polka
M: 2/4
L: 1/8
Q: 1/4=140
K: Edor
|:"Em"BE FE|"Em"BE FE|"D"D>E FA|"D"DE FA|
"Em"BE FE|"Em"BE FE|"D"D>E FA|1 "Em"FE EA:|2 "D"FE "Em"E2||
|:"C"e2 dB|"C"ef/e/ dB|"D"AF dF|"D"AB/c/ d2|
"C (Am)"ef/e/ dB|"C (Bm)"ef/e/ dB|"D (C)"AF dF|1 "D"FE "Em"EB:|2 "D"FE "(Bm)"d>c||

